X:1
T:Christe Redemptor omnium
T:Victoria text restored, alt. chant hymn tune edit BMarble
T:Vespers Hymn, All Saints
T:Christe Redemptor omnium
T:Copyright © 2015 by The Choral Public Domain Library. Edition may be freely distributed, duplicated, performed or recorded.
T:Copyright © 2015 by The Choral Public Domain Library. Edition may be freely distributed, duplicated, performed or recorded.
T:Copyright © 2015 by The Choral Public Domain Library. Edition may be freely distributed, duplicated, performed or recorded.
T:Copyright © 2015 by The Choral Public Domain Library. Edition may be freely distributed, duplicated, performed or recorded.
T:Copyright © 2015 by The Choral Public Domain Library. Edition may be freely distributed, duplicated, performed or recorded.
T:Copyright © 2015 by The Choral Public Domain Library. Edition may be freely distributed, duplicated, performed or recorded.
T:Copyright © 2015 by The Choral Public Domain Library. Edition may be freely distributed, duplicated, performed or recorded.
T:Copyright © 2015 by The Choral Public Domain Library. Edition may be freely distributed, duplicated, performed or recorded.
T:Copyright © 2015 by The Choral Public Domain Library. Edition may be freely distributed, duplicated, performed or recorded.
T:Copyright © 2015 by The Choral Public Domain Library. Edition may be freely distributed, duplicated, performed or recorded.
T:Copyright © 2015 by The Choral Public Domain Library. Edition may be freely distributed, duplicated, performed or recorded.
T:Copyright © 2015 by The Choral Public Domain Library. Edition may be freely distributed, duplicated, performed or recorded.
T:Copyright © 2015 by The Choral Public Domain Library. Edition may be freely distributed, duplicated, performed or recorded.
C:Victoria
C:text restored, alt. chant hymn tune
C:edit BMarble
Z:Vespers Hymn, All Saints
Z:Copyright © 2015 by The Choral Public Domain Library. Edition may be freely distributed, duplicated, performed or recorded.
%%score [ 1 2 3 4 ]
L:1/8
Q:1/2=80
M:4/4
K:D
V:1 treble nm="Soprano" snm="S."
V:2 treble nm="Alto" snm="A."
V:3 treble-8 transpose=-12 nm="Tenor" snm="T."
V:4 bass nm="Baritone" snm="Bar."
V:1
 z12 | z20 | z12 | z22 | z12 | z18 | z12 | z20 ||[M:4/2] D16 | E8 F6 G2 | A8 A8- | A4 G4 F8 | %12
w: ||||||||2.~Be-|a- ta _|_ quo-|* que ag-|
 E8 D4 A4 | B2 c2 d8 c4 | B4 G4 B8- | B4 G4 A8 | z4 A4 B2 c2 d4- | d4 c4 B4 d4 | c2 B2 B8 ^A4 | %19
w: mi- na cae-|le- * * sti-|um spi- ri-|* tu- um,|cae- le- * *|* sti- um spi-|ri- * * tu-|
 B16 | z8 z4 B4 | G4 A4 B4 G4 | B6 A2 F2 G2 A2 B2 | c4 d4 e4 B4 | =c4 A4 B8- | B4 ^A4 B4 B4 | %26
w: um,|prae-|te- ri- ta, prae-|sen- * * * * *|* ti- a, prae-|te- ri- ta,|_ prae- sen- ti-|
 =A8 F8- | F8 ^G8 | A8 E8 | F8 E8 | z4 F6 E2 F2 G2 | A4 F4 G4 E4 | F4 A4 B4 c4 | d12 c4 | %34
w: a, fu-|* tu-|ra ma-|* la|pel- * * *|* * * li-|te, fu- tu- ra|ma- la|
 e4 d6 c2 B2 A2 | G2 F2 E8 ^D4 | E4 B4 =c4 A4 | =c4 B4 A8- | A4 ^G2 F2 G8 || z12 | z20 | z12 | %42
w: pel- * * * *|* * * li-|te, fu- tu- ra|ma- la pel-|* li- * te.||||
 z22 | z12 | z18 | z12 | z20 ||[M:4/2] z16 | z16 | D16 | E8 F6 G2 | A8 A8 | G8 F8 | E8 F8 | G8 F8 | %55
w: |||||||4.~Mar-|ty- res _|_ De-|* i|_ in-|* cly-|
 E16 | z16 | D8 F8 | A8 B8 | B8 A8 | B6 c2 d4 c4- | c2 B2 B8 ^A4 | B16- | B16 | z16 | B8 =c8 | %66
w: ti||con- *|fes- so-|res- que|lu- * * *|* * * ci-|di,|_||ves- *|
 B16 | A8 ^G8 | A8 F8 | E8 D6 E2 | F2 G2 A4 F4 G4- | G2 F2 F8 E4 | F16- | F8 z8 | z16 | D8 E8 | %76
w: |tris o-|* ra-|ti- * *|* * * o- *|* * * ni-|bus|_||nos fer-|
 F6 G2 A8 | A8 G8 | F8 E8 | F8 G8 | F16 | E16 || z12 | z20 | z12 | z22 | z12 | z18 | z12 | z20 || %90
w: te _ _|in _|cae- *|le- *|sti-|bus.|||||||||
[M:4/2] z16 | z8 D8 | E8 F6 G2 | A8 A8- | A4 G4 F4 F4 | E8 z8 | z4 E4 F4 A4 | A4 G4 F6 E2 | %98
w: |6.~Au-|fer- te _|_ gen-|* tem per- fi-|dam|au- fer- te|gen- tem per- *|
 D4 E8 ^D4 | E8 z8 | =D8 F8 | A12 B4 | B12 A4 | B6 c2 d4 c4- | c2 B2 B8 ^A4 | B16- | B16 | z8 B8 | %108
w: * * fi-|dam|cre- *|den- ti-|um de|fi- * * *|* * * ni-|bus,|_|ut|
 =c8 B8 | A12 F4 | G4 E4 G4 F4- | F4 E4 F8- | F16- | F8 z8 | z4 A8 G4 | F16 | E8 G8 | F4 D4 E6 F2 | %118
w: _ _|u- nus|o- mnes u- *|* ni- cum|_||o- vi-|le|nos Pa-|ter _ _ _|
 G4 F2 E2 F4 F4 | ^G16 |] z12 | z20 | z12 | z22 | z12 | z18 | z12 | z20 | z16 |] %129
w: _ _ _ _ re-|gat.||||||||||
V:2
 z12 | z20 | z12 | z22 | z12 | z18 | z12 | z20 ||[M:4/2] z16 | A,8 A,4 B,4 | C4 A,4 D2 C2 D2 E2 | %11
w: |||||||||2.~Be- a- ta|quo- que ag- * * *|
 F4 E6 D2 D4- | D4 C4 D8- | D4 B,4 E8 | z4 E4 D4 B,4 | D12 C4 | D4 E4 F8 | E8 z4 F4 | G8 F8 | %19
w: ||* mi na|cae- le- sti-|um spi-|ri- tu- um,|_ spi-|ri- tu-|
 ^D4 F4 =D4 E4 | F4 D8 G4- | G4 F2 E2 D4 E4 | D8 z8 | F8 G8 | E4 F4 G4 E4 | G4 F8 E4 | %26
w: um, prae- te- ri-|ta, prae- sen-|* * * * ti-|a,|prae- *|te- ri- ta, prae-|sen- * ti-|
 F2 E2 D2 C2 D4 A,4- | A,4 B,8 C4- | C4 D6 CB, C4 | D8 B,4 E4 | D4 C2 B,2 C4 D4 | C4 A,4 B,4 C4 | %32
w: a, _ _ _ _ fu-|* tu- ra|_ ma- * * *|* la pel-|* * * * li-|te. fu- tu- ra|
 D8 G,4 A,4- | A,2 F,2 B,8 A,4 | B,16 | z4 E4 F4 F4 | G6 F2 E2 D2 =C2 B,2 | A,4 B,4 =C4 C4 | %38
w: ma- la pel-|* * * li-|te,|fu- tu- ra|ma- * * * * *|* la pel- li-|
 B,16 || z12 | z20 | z12 | z22 | z12 | z18 | z12 | z20 ||[M:4/2] A,8 B,4 C4 | D6 C2 B,4 A,4 | %49
w: te.|||||||||4.~Mar- ty- res|De- * * *|
 B,6 A,2 B,2 C2 D4- | D4 C4 D4 F4- | F4 E4 F4 C4 | D4 E4 F2 E2 D2 C2 | B,4 C8 D4- | D2 B,2 E8 ^D4 | %55
w: |* * i in-|* cly- ti, mar-|ty- res De- * * *|* i in-|* * * cly-|
 E4 B,4 C4 E4 | D4 C4 D6 C2 | D2 E2 F8 D4 | E4 F4 G4 D4 | E4 G4 F4 E4 | G6 F2 D4 E4 | F4 G4 E8 | %62
w: ti con- fes- so-|res- que lu- *||* ci- di, con-|fes- so- res- que|lu- * * *|* * ci-|
 F8 z8 | F8 G8 | F4 D4 E4 E4 | F4 G8 F4 | G6 FE D4 E4- | E4 ^D4 E4 B,4 | C4 C4 D2 E2 F2 G2 | %69
w: di,|ves- *|tris o- ra- ti-|o- * *||* ni- bus, ves-|tris o- ra- * * *|
 A2 G2 G2 FE F4 B,4 | ^C8 D8- | D4 C4 D4 B,4 | C8 z4 A,4- | A,4 B,8 C4 | D4 C2 B,2 C4 A,4 | %75
w: * * * * * * ti-|o- *|* * * ni-|bus, nos|_ fer- te|in _ _ _ cae-|
 B,2 C2 D6 CB, C4 | D6 E2 F4 E4 | F8 z4 E4 | E4 ^D4 E4 E,4 | B,6 A,2 G,2 E,2 E4- | %80
w: le- * * * * *|* * * sti-|bus, nos|fer- te in cae-|le- * * * *|
 E4 ^D2 C2 D4 D4 | E16 || z12 | z20 | z12 | z22 | z12 | z18 | z12 | z20 ||[M:4/2] z16 | %91
w: * * * * sti-|bus.||||||||||
 z4 A,4 B,4 D4 | D4 C4 D6 E2 | F4 E4 F4 F4 | E8 z8 | z4 A,4 C4 D4 | E8 A,8 | B,12 ^A,4 | %98
w: 6.~Au- fer- te|gen- tem per- *|* * * fi-|dam,|au- fer- te|gen- tem|per- fi-|
 B,8 z4 =A,4 | B,8 C4 D4- | D4 B,4 C4 D4 | E6 D2 E2 F2 G4- | G4 F4 G4 E4 | F6 E2 F2 G2 A4 | %104
w: dam cre-|den- ti- um|_ de fi- *||* ni- bus, de|fi- * * * *|
 F4 G4 F4 F4 | ^D8 z4 F4 | G4 G4 F4 G4- | G4 F2 E2 F6 G2 | A4 E4 G8 | F4 E8 ^D4 | E4 B,6 C2 D4- | %111
w: * * * ni-|bus, ut|u- nus o- *||* mnes u-|* * ni-|cum, om- * *|
 D2 C2 B,8 =A,4 | B,4 C4 D8 | z4 A8 G4 | F8 E4 E4 | D2 E2 F2 G2 A4 A,2 B,2 | C2 D2 E6 D2 B,2 C2 | %117
w: * * * mnes|u- ni- cum|o- vi-|le nos Pa-|ter _ _ _ _ _ _|_ _ _ _ _ _|
 D2 E2 F6 E2 E4- | E4 ^D2 C2 D4 D4 | E16 |] z12 | z20 | z12 | z22 | z12 | z18 | z12 | z20 | z16 |] %129
w: |* * * * re-|gat.||||||||||
V:3
 D2 E2 (F2 A2) (A2 G2) | (F2 E2) G2 (F2 E2 D2) E8 | (D2 F2) A2 (A2 B2) B2 | %3
w: 1.~Chri- ste, re- * dem- *|ptor _ o- mni- * * um,|con- * ser- va _ tu-|
 (B2 A2) (A2 d2) (c2 B2 A2) B8 | (B2 d2) A2 (A2 G2) F2 | (E2 D2) E2 (E2 F2) F8 | %6
w: os _ fa- * mu- * * los,|be- * a- tae _ sem-|per _ Vir- gi- * nis|
 D2 E2 (F2 A2) (A2 G2) | (F2 E2) G2 (F2 E2 D2) E8 ||[M:4/2] z16 | z16 | z16 | z16 | z8 D8 | F8 A8 | %14
w: pla- ca- tus _ san- *|ctis _ pre- ci- * * bus.|||||2.~Cae-|* le-|
 B8 B8- | B8 A8 | B4 c4 d8 | B4 c4 d8 | e8 c8 | B8 z8 | z8 B8 | =c8 B8- | B8 A8- | A8 G8 | %24
w: sti- um|_ spi-|ri- * *||* tu-|um,|prae-||* te-|* ri-|
 A4 F4 E6 D2 | E4 F4 G4 G4 | F16 | z16 | z16 | D8 E8 | F6 =G2 A8 | A8 G8 | F8 E8 | F16 | G16- | %35
w: ta, prae- sen- *|* * * ti-|a,|||fu- tu-|ra _ _|ma- *|la _|_|pel-|
 G8 F8 | E16- | E16- | E16 || D2 E2 (F2 A2) (A2 G2) | (F2 E2) G2 (F2 E2 D2) E8 | %41
w: * li-|te.|_||3.~Va- tes ae- * ter- *|ni _ ju- di- * * cis|
 (D2 F2) A2 (A2 B2) B2 | (B2 A2) (A2 d2) (c2 B2 A2) B8 | (B2 d2) A2 (A2 G2) F2 | %44
w: a- * po- sto- * li-|que _ Do- * mi- * * ni|sup- * pli- ci- * ter|
 (E2 D2) E2 (E2 F2) F8 | D2 E2 (F2 A2) (A2 G2) | (F2 E2) G2 (F2 E2 D2) E8 ||[M:4/2] z16 | %48
w: ex- * po- sci- * mus|sal- va- ri _ ves- *|tris _ pre- ci- * * bus.||
 D8 E4 F4 | G6 F2 G2 A2 B4 | A8 D4 d4- | d4 c4 d4 A4 | B4 c4 d2 c2 B2 A2 | ^G4 A4 F4 B4- | %54
w: 4.~Mar- ty- res|De- * * * *|* i in-|* cly- ti, mar-|ty- res De- * * *|* * i in-|
 B4 =G4 A4 B4 | E8 z4 E4 | F4 A4 G4 F4 | B16 | A8 G8 | z4 E4 F4 A4 | G4 E4 B4 c4 | d4 e4 c8 | %62
w: * * * cly-|ti con-|fes- so- res- que|lu-|ci- di,|con- fes- so-|res- que lu- *|* * ci-|
 B16- | B8 z8 | B8 =c8 | B4 G4 A4 A4 | E2 F2 G2 A2 B4 G4 | F8 E8 | z8 B8 | =c8 B4 G4 | A4 A4 B8- | %71
w: di,|_|ves- *|tris o- ra- ti-|o- * * * * ni-|bus, _|ves-|* tris o-|ra- ti- o-|
 B4 ^A4 B4 G4 | F16 | D8 E8 | F6 G2 A8 | G6 F2 G4 A4 | D4 d4 d4 c4 | d4 D4 E2 F2 G2 A2 | %78
w: * * * ni-|bus,|nos fer-|te _ _|in cae- le- sti-|bus, nos fer- te|in cae- le- * * *|
 B4 B4 E4 e4 | e4 ^d4 e4 E4 | B12 B4 | E16 || D2 E2 (F2 A2) (A2 G2) | (F2 E2) G2 (F2 E2 D2) E8 | %84
w: * sti- bus, nos|fer- te in cae-|le- sti-|bus.|5.~Cho- ri san- * cta- *|tum _ vir- gi- * * num|
 (D2 F2) A2 (A2 B2) B2 | (B2 A2) (A2 d2) (c2 B2 A2) B8 | (B2 d2) A2 (A2 G2) F2 | %87
w: mo- * na- cho- * um-|que _ o- * mni- * * um,|si- * mul cum _ san-|
 (E2 D2) E2 (E2 F2) F8 | D2 E2 (F2 A2) (A2 G2) | (F2 E2) G2 (F2 E2 D2) E8 ||[M:4/2] A8 B4 d4 | %91
w: ctis _ o- mni- * bus|con- sor- tes _ Chri- *|sti _ fa- ci- * * te.|6.~Au- fer- te|
 d4 c4 d2 c2 B2 A2 | G4 A4 D4 d4 | d4 c4 d6 c2 | B2 A2 B4 A4 d4- | d4 c2 B2 A4 F4 | E4 B4 c4 d4 | %97
w: gen- tem per- * * *|* fi- dam, au-|fer- te gen- *|* * * tem per-|* * * * fi-|dam, au- fer- te|
 e8 c4 d4- | d2 c2 B6 =A2 A4- | A4 ^G4 A8 | z16 | z4 A4 c4 d4 | e4 f4 e8- | e4 d2 c2 B4 c4 | %104
w: gen- tem per-||* fi- dam||cre- den- ti-|um de fi-||
 d4 e4 c8 | B16 | z4 B4 =d4 d4 | e12 ^d4 | e12 =d4 | ^c8 A8 | B4 G8 A4 | B6 c2 d4 c4 | d4 A4 B8 | %113
w: * * ni-|bus,|ut u- nus|o- mnes|u- *|* ni-|cum, o- mnes|u- * * ni-|cum o- vi-|
 d8 c4 B4 | d4 c2 B2 c4 B4- | B2 c2 d2 B2 c8- | c4 c4 B8 | z4 B4 G4 A4 | B12 B4 | B16 |] %120
w: le nos Pa-|ter _ _ _ _|_ _ _ _ _|* re- gat,|Pa- ter _|_ re-|gat.|
 D2 E2 (F2 A2) (A2 G2) | (F2 E2) G2 (F2 E2 D2) E8 | (D2 F2) A2 (A2 B2) B2 | %123
w: 7.~Sit Tri- ni- * ta- *|ti _ glo- ri- * * a,|ves- * tras- que _ vo-|
 (B2 A2) (A2 d2) (c2 B2 A2) B8 | (B2 d2) A2 (A2 G2) F2 | (E2 D2) E2 (E2 F2) F8 | %126
w: ces _ jun- * gi- * * te|ut _ il- li _ lau-|des _ de- bi- * tas|
 D2 E2 (F2 A2) (A2 G2) | (F2 E2) G2 (F2 E2 D2) E8 | (E2 F2) (E2 D2 E8) |] %129
w: per- sol- va- * mus _|a- * la- cri- * * ter.|A- * men. _ _|
V:4
 z12 | z20 | z12 | z22 | z12 | z18 | z12 | z20 ||[M:4/2] z16 | z16 | z8 D,8 | D,4 E,4 F,4 D,4 | %12
w: ||||||||||2.~Be-|a- ta quo- que|
 A,6 G,2 F,2 E,2 D,2 C,2 | B,,4 B,,4 A,,4 A,4 | G,4 E,4 G,8- | G,4 G,4 F,6 E,2 | D,4 C,4 B,,4 B,4 | %17
w: ag- * * * * *|* mi- na cae-|le- sti- um|_ spi- ri- *|* tu- um, cae-|
 G,4 A,4 B,4 B,,4 | E,8 F,8 | B,,8 z8 | F,8 G,8 | E,4 F,4 G,4 E,4 | G,6 F,2 D,2 E,2 F,4- | %23
w: le- sti- um spi-|ri- tu-|um,|prae- *|te- ri- ta, prae-|sen- * * * *|
 F,4 F,4 E,8 | z16 | z16 | z8 D,8- | D,8 E,8 | F,6 G,2 A,8 | A,12 ^G,4 | A,6 =G,2 F,4 D,4 | %31
w: * ti- a,|||fu-|* tu-|ra _ _|ma- la|pel- * * *|
 F,8 E,8 | D,8 z4 A,,4 | D,4 B,,4 F,8 | E,4 B,6 A,2 G,2 F,2 | E,2 D,2 =C,2 B,,2 A,,4 B,,4 | %36
w: * li-|te, fu-|tu- ra ma-|la pel- * * *|* * * * * li-|
 E,8 A,,8- | A,,4 ^G,,4 A,,4 A,,4 | E,16 || z12 | z20 | z12 | z22 | z12 | z18 | z12 | z20 || %47
w: te, pel-|* * * li-|te.|||||||||
[M:4/2] z16 | z16 | z16 | z16 | z16 | z16 | z16 | z16 | z16 | z16 | z16 | z16 | z16 | z16 | z16 | %62
w: |||||||||||||||
 z16 | z16 | z16 | z16 | z16 | z16 | z16 | z16 | z16 | z16 | z16 | z16 | z16 | z16 | z16 | z16 | %78
w: ||||||||||||||||
 z16 | z16 | z16 | z16 || z12 | z20 | z12 | z22 | z12 | z18 | z12 | z20 ||[M:4/2] z16 | z16 | z16 | %93
w: |||||||||||||||
 z8 D,8 | E,8 F,6 G,2 | A,8 A,8 | G,8 F,8 | E,8 F,8 | G,8 F,8 | E,8 z4 D,4 | F,4 G,4 A,4 B,4 | %101
w: 6.~Au-|fer- te _|_ gen-|* tem|_ per-|* fi-|dam cre-|den- ti- um de|
 A,12 G,2 F,2 | E,4 ^D,4 E,4 =C,4 | B,,4 B,4 B,4 A,4 | B,4 E,4 F,6 F,2 | B,,16 | z8 B,8 | =C8 B,8 | %108
w: fi- * *|* * * ni-|bus, cre- den- ti-|um de fi- ni-|bus,|ut|_ _|
 A,8 G,8 | A,8 F,8 | E,6 D,2 E,4 F,4 | G,8 F,8 | z16 | z4 D,4 E,8 | F,6 G,2 A,4 E,4 | B,8 F,6 G,2 | %116
w: u- nus|o- mnes|u- * * ni-|cum _||o- vi-|le _ _ nos|Pa- ter _|
 A,4 A,4 E,2 F,2 G,2 A,2 | B,4 B,,4 =C,8 | B,,12 B,,4 | E,16 |] z12 | z20 | z12 | z22 | z12 | z18 | %126
w: _ re- gat, _ _ _|_ Pa- ter|_ re-|gat.|||||||
 z12 | z20 | z16 |] %129
w: |||

